X:255
T: ZU DES LEBENS FREUDEN SCHUF UNS DIE NATUR
N: B0305
O: Europa, Mitteleuropa, Deutschland
R: Stimmungs - Lied, Freude, Moral
M: 6/8
L: 1/16
K: G
 | B4B2cBA2B2 | d4c2B4z2 |
A4B2c4d2 | B6z6 |
B4B2d^cB2c2 | d6B6 |
A4f2e3fe2 | d6z6 |
A4B2c4d2 | c6B6 |
G4G2A2G2A2 | B6z6 |
c4c2B4B2 | e6e2d2c2 |
B4B2c4A2 | G6z6

@@@ Tune index: 2058
